X:396
T: Wenn ich hungrig und traurig bin (120), S. 278
N: T0024
O: Luxemburg
S: Singendes Volk, Esch-Alzette 1937 posth.]
N: Straen, fff Witry, 13.2.1932, von Tante erlernt
R: Liebeslieder]
M: 2/4
L: 1/8
K: G
 | GEGE | GAGE |
GEGE | GAGE |
AGED | GAA2 |
AGEE | AGe2

@@@ Tune index: 8450
